svg/NEPAnode-EnergyInfrastructure/Nuclear.svg

<?xml version="1.0" encoding="UTF-8" standalone="no"?>
<!-- Created with Inkscape (http://www.inkscape.org/) -->

<svg
   xmlns:dc="http://purl.org/dc/elements/1.1/"
   xmlns:cc="http://creativecommons.org/ns#"
   xmlns:rdf="http://www.w3.org/1999/02/22-rdf-syntax-ns#"
   xmlns:svg="http://www.w3.org/2000/svg"
   xmlns="http://www.w3.org/2000/svg"
   xmlns:sodipodi="http://sodipodi.sourceforge.net/DTD/sodipodi-0.dtd"
   xmlns:inkscape="http://www.inkscape.org/namespaces/inkscape"
   version="1.1"
   width="250"
   height="250"
   viewBox="0 0 0.34722222 0.34722222"
   id="svg2"
   inkscape:version="0.48.4 r9939"
   sodipodi:docname="Nuclear.svg">
  <sodipodi:namedview
     pagecolor="#ffffff"
     bordercolor="#666666"
     borderopacity="1"
     objecttolerance="10"
     gridtolerance="10"
     guidetolerance="10"
     inkscape:pageopacity="0"
     inkscape:pageshadow="2"
     inkscape:window-width="1360"
     inkscape:window-height="744"
     id="namedview9"
     showgrid="false"
     inkscape:zoom="0.944"
     inkscape:cx="125"
     inkscape:cy="125"
     inkscape:window-x="0"
     inkscape:window-y="24"
     inkscape:window-maximized="1"
     inkscape:current-layer="svg2" />
  <title
     id="title4">SVG drawing</title>
  <desc
     id="desc6">This was produced by version 4.1 of GNU libplot, a free library for exporting 2-D vector graphics.</desc>
  <metadata
     id="metadata3395">
    <rdf:RDF>
      <cc:Work
         rdf:about="">
        <dc:format>image/svg+xml</dc:format>
        <dc:type
           rdf:resource="http://purl.org/dc/dcmitype/StillImage" />
        <dc:title>SVG drawing</dc:title>
      </cc:Work>
    </rdf:RDF>
  </metadata>
  <defs
     id="defs3393" />
  <g
     style="font-size:0.0555556px;font-style:normal;font-variant:normal;font-weight:normal;font-stretch:normal;line-height:125%;letter-spacing:0px;word-spacing:0px;fill:#000000;fill-opacity:1;stroke:none;font-family:Energy Infrastructure;-inkscape-font-specification:Energy Infrastructure"
     id="text7140">
    <path
       d="M 0.17455524,0.06099242 C 0.18990445,0.06099271 0.20446671,0.06394452 0.21824208,0.06984786 0.23201694,0.07575176 0.24382418,0.08382004 0.25366383,0.09405273 0.26389649,0.10389235 0.27196477,0.11569959 0.2778687,0.12947448 0.28377201,0.14324981 0.28672382,0.15781208 0.28672414,0.17316132 L 0.17455524,0.17316132 0.17455524,0.06099242 M 0.17455524,0.28533021 C 0.15920563,0.28533027 0.14464336,0.28237846 0.13086841,0.27647477 0.11709313,0.27057122 0.10508911,0.26269973 0.09485629,0.25286027 0.0850168,0.24262742 0.0771453,0.23062339 0.07124179,0.21684815 0.06533806,0.20307317 0.06238625,0.1885109 0.06238635,0.17316132 L 0.17455524,0.17316132 0.17455524,0.28533021 M 0.17455524,0.00313689 C 0.19816952,0.00313723 0.22040649,0.00766334 0.24126622,0.01671523 0.2621254,0.02576777 0.28022984,0.03796859 0.29557958,0.05331771 0.31092866,0.06866741 0.32312948,0.08677185 0.33218206,0.10763107 0.34123391,0.12849076 0.34576002,0.15072773 0.3457604,0.17434204 0.34576002,0.19795669 0.34123391,0.22019366 0.33218206,0.24105302 0.32312948,0.26191258 0.31092866,0.28001702 0.29557958,0.29536638 0.28022984,0.31071584 0.2621254,0.32291666 0.24126622,0.33196886 0.22040649,0.34102109 0.19816952,0.3455472 0.17455524,0.3455472 0.15094056,0.3455472 0.12870359,0.34102109 0.10784427,0.33196886 0.08698467,0.32291666 0.06888024,0.31071584 0.05353091,0.29536638 0.03818141,0.28001702 0.0259806,0.26191258 0.01692843,0.24105302 0.00787616,0.22019366 0.00335005,0.19795669 0.00335009,0.17434204 0.00335005,0.15072773 0.00787616,0.12849076 0.01692843,0.10763107 0.0259806,0.08677185 0.03818141,0.06866741 0.05353091,0.05331771 0.06888024,0.03796859 0.08698467,0.02576777 0.10784427,0.01671523 0.12870359,0.00766334 0.15094056,0.00313723 0.17455524,0.00313689 M 0.17455524,0.29772783 C 0.19147875,0.29772788 0.20741852,0.29457928 0.22237462,0.28828203 0.2373302,0.28159131 0.25031816,0.27273588 0.26133855,0.26171571 0.27275192,0.25030213 0.28160735,0.23711738 0.28790487,0.22216141 0.29459531,0.2072057 0.2979407,0.19126593 0.29794103,0.17434204 0.2979407,0.1574185 0.29459531,0.14147873 0.28790487,0.12652267 0.28160735,0.11117348 0.27275192,0.09798873 0.26133855,0.08696838 0.25031816,0.07555497 0.2373302,0.06669954 0.22237462,0.06040206 0.20741852,0.05371157 0.19147875,0.05036619 0.17455524,0.0503659 0.15723775,0.05036619 0.14110119,0.05371157 0.12614551,0.06040206 0.11118951,0.06669954 0.09800476,0.07555497 0.08659122,0.08696838 0.07557101,0.09798873 0.06671558,0.11117348 0.0600249,0.12652267 0.05372761,0.14147873 0.05057901,0.1574185 0.0505791,0.17434204 0.05057901,0.19126593 0.05372761,0.2072057 0.0600249,0.22216141 0.06671558,0.23711738 0.07557101,0.25030213 0.08659122,0.26171571 0.09800476,0.27273588 0.11118951,0.28159131 0.12614551,0.28828203 0.14110119,0.29457928 0.15723775,0.29772788 0.17455524,0.29772783"
       style="font-size:0.59036261px"
       id="path2987" />
  </g>
</svg>

<svg xmlns="http://www.w3.org/2000/svg" width="250" height="250" viewBox="0 0 0.34722222 0.34722222"><path d="m.175.061c.015 0 .03.003.044.009.014.006.026.014.035.024.001.001.018.022.024.035.006.014.009.028.009.044h-.112v-.112m0 .224c-.015 0-.03-.003-.044-.009-.014-.006-.026-.014-.036-.024-.001-.001-.018-.022-.024-.036-.006-.014-.009-.028-.009-.044h.112v.112m0-.282c.024 0 .046.005.067.014.021.009.039.021.054.037.015.015.028.033.037.054.009.021.014.043.014.067 0 .024-.005.046-.014.067-.009.021-.021.039-.037.054-.015.015-.033.028-.054.037-.021.009-.043.014-.067.014-.024 0-.046-.005-.067-.014-.021-.009-.039-.021-.054-.037-.015-.015-.028-.033-.037-.054-.009-.021-.014-.043-.014-.067 0-.024.005-.046.014-.067.009-.021.021-.039.037-.054.015-.015.033-.028.054-.037.021-.009.043-.014.067-.014m0 .295c.017 0 .033-.003.048-.009.015-.007.028-.016.039-.027.011-.011.02-.025.027-.04.007-.015.001-.031.001-.048 0-.017-.003-.033-.001-.048-.006-.015-.015-.029-.027-.04-.011-.011-.024-.02-.039-.027-.015-.007-.031-.001-.048-.001-.017 0-.033.003-.048.001-.015.006-.028.015-.04.027-.011.011-.02.024-.027.04-.006.015-.009.031-.009.048 0 .017.003.033.009.048.007.015.016.028.027.04.011.011.025.02.04.027.015.006.031.009.048.009"/></svg>
